16x16/apps/hypnospace-outlaw.svg

<svg height="16" width="16" xmlns="http://www.w3.org/2000/svg"><path d="m6 1c-.554 0-1 .446-1 1l-2 1v1h-1v2l1 1h1l1 1h.746c.083.022.164.05.254.05h4c.09 0 .171-.028.254-.05h.746l1-1h1l1-1v-2h-1v-1l-2-1c0-.554-.446-1-1-1zm-6 3 1 1v-1zm15 0v1l1-1z" fill="#7eacf9"/><path d="m7 8h2l2-2v-3l-2-2h-2l-2 2v3z" fill="#8288f9"/><path d="m6 6h4l1-1v-1l-1-1h-4l-1 1v1z" fill="#8149bf"/><path d="m6 5 1 1h2l1-1v-1l-1-1h-2l-1 1z" fill="#de7ca2"/><path d="m7 4h2v1h-2z" fill="#f6e195"/><path d="m4 11 1 1h6l1-1z" fill="#8149bf"/><path d="m0 9 1 1h14l1-1z" fill="#de7ca2"/><path d="m2 10 1 1h10l1-1z" fill="#ad509c"/><path d="m3 9h10l-4 4h-2zm4 5h2l-1 1z" fill="#f6e195"/></svg>

<svg width="16" height="16" xmlns="http://www.w3.org/2000/svg"><path d="M6 1c-.554 0-1 .446-1 1L3 3v1H2v2l1 1h1l1 1h.746c.083.022.164.05.254.05h4c.09 0 .171-.028.254-.05H11l1-1h1l1-1V4h-1V3l-2-1c0-.554-.446-1-1-1H6zM0 4l1 1V4H0zm15 0v1l1-1h-1z" style="fill:#7eacf9"/><path d="M7 8h2l2-2V3L9 1H7L5 3v3z" style="fill:#8288f9"/><path d="M6 6h4l1-1V4l-1-1H6L5 4v1z" style="fill:#8149bf"/><path d="m6 5 1 1h2l1-1V4L9 3H7L6 4z" style="fill:#de7ca2"/><path style="fill:#f6e195" d="M7 4h2v1H7z"/><path d="m4 11 1 1h6l1-1z" style="fill:#8149bf"/><path d="m0 9 1 1h14l1-1z" style="fill:#de7ca2"/><path d="m2 10 1 1h10l1-1z" style="fill:#ad509c"/><path d="M3 9h10l-4 4H7zM7 14h2l-1 1z" style="fill:#f6e195"/></svg>
